X: 1228
T: Athol's Father's Schottische
B: australian traditional tunes wiki
M:4/4
L:1/8
R: Schottische
Q: 1/4=100
K:D
V:1 
|:F>G|"D"A>FA2"G"B>G (3BdB|"D"A>F A>df3f|"G"g2g2"D"f2f2|"A7"(3efe (3dcB A2F>G|
"D"A>FA2"G"B>G (3BdB|"D"A>F A>df3f|"A7"e>d e>f g>e B>c|"D"d2d2d2:|
|:f>g|"D"a2a2 "G"b2b2|"A7"a>g (3efec3B/A/|"D"a2a2"G"b2b>d|"A7"c>e (3dcBA2f>g|
"D"(3aaa b>ad2f2|"Em"(3efe (3dcB "A7"A2F>E|"D"D>F A>d "A7"E>D E>F|"D"D2D2D2:|
% abcbook-tune_id 6342d53ad00621845e4d0f0b


% abcbook-boost 0
% abcbook-tablature 
% abcbook-transpose 
% abcbook-lastupdated 1665324354989
% abcbook-soundfonts 
% abcbook-repeats 1
% NFF Book 2015

